openmetadata-ui/src/main/resources/ui/src/assets/svg/default-service-icon.svg

<svg xmlns="http://www.w3.org/2000/svg" width="512" height="512" fill="none"><path fill="#004AB3FF" d="m492.93 199.477-49.172-5.938c-1.375-.164-2.524-1.113-3.004-2.477a195.127 195.127 0 0 0-8.25-19.859c-.598-1.246-.465-2.664.351-3.703l30.649-39.066c6.758-8.618 6.016-20.954-1.727-28.696l-49.511-49.511c-7.746-7.746-20.082-8.489-28.7-1.727l-39.062 30.648c-1.043.817-2.461.95-3.703.348a195.405 195.405 0 0 0-19.86-8.25c-1.367-.477-2.316-1.629-2.48-3l-5.938-49.176C311.211 8.2 301.961 0 291.012 0h-70.024c-10.949 0-20.199 8.2-21.511 19.07l-5.938 49.172c-.164 1.375-1.113 2.524-2.477 3.004a195.105 195.105 0 0 0-19.859 8.25c-1.246.598-2.664.465-3.703-.352l-39.066-30.648c-8.618-6.762-20.954-6.016-28.696 1.727L50.227 99.738c-7.746 7.742-8.489 20.078-1.727 28.696l30.648 39.062c.817 1.043.95 2.461.348 3.707a195.339 195.339 0 0 0-8.25 19.856c-.48 1.367-1.629 2.316-3 2.48l-49.176 5.938C8.2 200.789 0 210.039 0 220.988v70.024c0 10.953 8.2 20.199 19.07 21.511l49.172 5.938c1.375.164 2.524 1.113 3.004 2.477a195.55 195.55 0 0 0 8.25 19.863c.598 1.242.465 2.664-.352 3.703l-30.648 39.062c-6.758 8.618-6.016 20.954 1.727 28.7l49.511 49.511c7.746 7.743 20.082 8.485 28.7 1.727l39.062-30.652c1.039-.817 2.461-.95 3.703-.348a195.428 195.428 0 0 0 19.86 8.25c1.367.48 2.316 1.629 2.48 3l5.938 49.176c1.312 10.871 10.562 19.07 21.511 19.07h70.024c10.949 0 20.199-8.199 21.511-19.07l5.938-49.172c.164-1.375 1.113-2.524 2.477-3.004a195.127 195.127 0 0 0 19.859-8.25c1.246-.602 2.664-.465 3.703.351l39.066 30.649c8.618 6.758 20.954 6.016 28.696-1.727l49.511-49.511c7.747-7.746 8.489-20.082 1.727-28.7l-30.648-39.062c-.817-1.039-.95-2.457-.348-3.703a195.428 195.428 0 0 0 8.25-19.86c.48-1.363 1.629-2.312 3-2.48l49.176-5.938c10.871-1.312 19.07-10.562 19.07-21.511v-70.024c0-10.949-8.199-20.199-19.07-21.511Z"/><path fill="#fff" d="M382.145 256c0 69.668-56.477 126.145-126.145 126.145S129.855 325.668 129.855 256 186.332 129.855 256 129.855 382.145 186.332 382.145 256Z"/><path fill="#ECEDF4" d="M291.484 134.926c30.754 23.004 50.661 59.715 50.661 101.074 0 69.668-56.477 126.145-126.145 126.145-12.32 0-24.227-1.778-35.484-5.071 21.046 15.746 47.175 25.071 75.484 25.071 69.668 0 126.145-56.477 126.145-126.145 0-57.344-38.27-105.746-90.661-121.074Z"/><path fill="#35198E" d="m492.93 199.477-21.321-2.575c.254 1.328.391 2.696.391 4.086v70.024c0 10.953-8.199 20.199-19.07 21.511l-49.176 5.938c-1.371.164-2.52 1.113-3 2.48a195.362 195.362 0 0 1-8.25 19.856c-.602 1.246-.465 2.664.348 3.703l30.652 39.066c6.758 8.618 6.016 20.954-1.727 28.696l-49.511 49.511a21.585 21.585 0 0 1-9.387 5.497l20.687 16.23c8.618 6.762 20.954 6.02 28.7-1.727l49.511-49.511c7.743-7.742 8.485-20.078 1.727-28.696L432.852 344.5c-.813-1.039-.95-2.457-.348-3.703a195.362 195.362 0 0 0 8.25-19.856c.48-1.367 1.629-2.316 3-2.48l49.176-5.938c10.871-1.312 19.07-10.562 19.07-21.511v-70.024c0-10.949-8.199-20.199-19.07-21.511ZM304.5 412.852c-1.039-.817-2.457-.95-3.703-.348a195.127 195.127 0 0 1-19.859 8.25c-1.364.48-2.313 1.629-2.477 3l-5.938 49.176c-1.312 10.871-10.562 19.07-21.511 19.07h-51.645l.11.93c1.312 10.871 10.562 19.07 21.511 19.07h70.024c10.949 0 20.199-8.199 21.511-19.07l5.938-49.172c.164-1.375 1.113-2.524 2.477-3.004a194.358 194.358 0 0 0 12.734-5.012l-29.172-22.89Z"/><path fill="#B0BEC5" d="M230.203 292.246V379.5a126.697 126.697 0 0 0 25.793 2.645h.008c8.84 0 17.465-.915 25.793-2.645v-87.188l-51.594-.066Z"/><path fill="#B0BEC5" d="M282.48 176.676v44.203c0 1.449-.593 2.84-1.644 3.84l-21.676 20.719a5.314 5.314 0 0 1-7.433-.082l-20.649-20.649a5.307 5.307 0 0 1-1.558-3.761v-44.274c0-4.386-4.801-7.07-8.551-4.797-20.332 12.332-33.649 35.071-32.559 60.828 1.512 35.59 31.004 64.204 66.625 64.7 37.805.527 68.617-29.961 68.617-67.645 0-24.543-13.07-46.027-32.625-57.887-3.75-2.269-8.547.418-8.547 4.805Z"/><path fill="#78909C" d="M261.797 292.312v47.629c0 11.926-9.449 21.711-21.367 22.125-1.469.051-2.946.079-4.426.079h-.012c-1.941 0-3.871-.051-5.789-.141V379.5a126.658 126.658 0 0 0 25.789 2.645h.012c8.84 0 17.465-.915 25.793-2.645v-87.184h-20v-.004Z"/><path fill="#78909C" d="M256 324.695a7.5 7.5 0 0 0-7.5 7.5v49.719c2.48.145 4.977.231 7.496.231h.008c2.519 0 5.016-.086 7.496-.231v-49.719a7.5 7.5 0 0 0-7.5-7.5Z"/><path fill="#455A64" d="M259.727 382.086c-1.235.035-2.477.059-3.723.059h-.008c-1.246 0-2.488-.024-3.723-.059a136.912 136.912 0 0 1-3.773-.172V360.23c7.84-3.421 13.297-11.234 13.297-20.289v-12.507a7.487 7.487 0 0 1 1.703 4.761v49.719a138.016 138.016 0 0 1-3.773.172Z"/><path fill="#78909C" d="M291.027 171.871c-2.816-1.707-6.222-.614-7.746 1.894 6.567 10.426 10.371 22.762 10.371 35.992 0 37.684-30.812 68.172-68.617 67.645a66.78 66.78 0 0 1-20.062-3.387c12.261 14.09 30.207 23.11 50.062 23.387 37.805.527 68.617-29.961 68.617-67.645 0-24.539-13.07-46.027-32.625-57.886Z"/><path fill="#35198E" d="M421.773 79.739c7.747 7.742 8.489 20.078 1.727 28.695L392.852 147.5c-.813 1.039-.95 2.457-.348 3.703a195.05 195.05 0 0 1 8.25 19.86c.48 1.363 1.629 2.312 3 2.476l31.566 3.813c-.91-2.067-1.84-4.121-2.816-6.149-.602-1.246-.469-2.664.348-3.703l30.648-39.066c6.762-8.617 6.02-20.953-1.727-28.695l-49.511-49.512c-6.52-6.52-16.285-8.055-24.352-4.356l33.863 33.867Z"/></svg>

<svg width="512" height="512" viewBox="0 0 512 512" fill="none" xmlns="http://www.w3.org/2000/svg">
<path d="M492.93 199.477L443.758 193.539C442.383 193.375 441.234 192.426 440.754 191.062C438.391 184.34 435.613 177.66 432.504 171.203C431.906 169.957 432.039 168.539 432.855 167.5L463.504 128.434C470.262 119.816 469.52 107.48 461.777 99.7383L412.266 50.2266C404.52 42.4805 392.184 41.7383 383.566 48.5L344.504 79.1484C343.461 79.9648 342.043 80.0977 340.801 79.4961C334.344 76.3867 327.66 73.6094 320.941 71.2461C319.574 70.7695 318.625 69.6172 318.461 68.2461L312.523 19.0703C311.211 8.19922 301.961 0 291.012 0H220.988C210.039 0 200.789 8.19922 199.477 19.0703L193.539 68.2422C193.375 69.6172 192.426 70.7656 191.062 71.2461C184.34 73.6094 177.66 76.3867 171.203 79.4961C169.957 80.0937 168.539 79.9609 167.5 79.1445L128.434 48.4961C119.816 41.7344 107.48 42.4805 99.7383 50.2227L50.2266 99.7383C42.4805 107.48 41.7383 119.816 48.5 128.434L79.1484 167.496C79.9648 168.539 80.0977 169.957 79.4961 171.203C76.3867 177.66 73.6094 184.34 71.2461 191.059C70.7656 192.426 69.6172 193.375 68.2461 193.539L19.0703 199.477C8.19922 200.789 0 210.039 0 220.988V291.012C0 301.965 8.19922 311.211 19.0703 312.523L68.2422 318.461C69.6172 318.625 70.7656 319.574 71.2461 320.938C73.6094 327.66 76.3867 334.34 79.4961 340.801C80.0937 342.043 79.9609 343.465 79.1445 344.504L48.4961 383.566C41.7383 392.184 42.4805 404.52 50.2227 412.266L99.7344 461.777C107.48 469.52 119.816 470.262 128.434 463.504L167.496 432.852C168.535 432.035 169.957 431.902 171.199 432.504C177.656 435.613 184.34 438.391 191.059 440.754C192.426 441.234 193.375 442.383 193.539 443.754L199.477 492.93C200.789 503.801 210.039 512 220.988 512H291.012C301.961 512 311.211 503.801 312.523 492.93L318.461 443.758C318.625 442.383 319.574 441.234 320.938 440.754C327.66 438.391 334.34 435.613 340.797 432.504C342.043 431.902 343.461 432.039 344.5 432.855L383.566 463.504C392.184 470.262 404.52 469.52 412.262 461.777L461.773 412.266C469.52 404.52 470.262 392.184 463.5 383.566L432.852 344.504C432.035 343.465 431.902 342.047 432.504 340.801C435.613 334.344 438.391 327.66 440.754 320.941C441.234 319.578 442.383 318.629 443.754 318.461L492.93 312.523C503.801 311.211 512 301.961 512 291.012V220.988C512 210.039 503.801 200.789 492.93 199.477V199.477Z" fill="#1e61f0"/>
<path d="M382.145 256C382.145 325.668 325.668 382.145 256 382.145C186.332 382.145 129.855 325.668 129.855 256C129.855 186.332 186.332 129.855 256 129.855C325.668 129.855 382.145 186.332 382.145 256Z" fill="white"/>
<path d="M291.484 134.926C322.238 157.93 342.145 194.641 342.145 236C342.145 305.668 285.668 362.145 216 362.145C203.68 362.145 191.773 360.367 180.516 357.074C201.562 372.82 227.691 382.145 256 382.145C325.668 382.145 382.145 325.668 382.145 256C382.145 198.656 343.875 150.254 291.484 134.926Z" fill="#ECEDF4"/>
<path d="M492.93 199.477L471.609 196.902C471.863 198.23 472 199.598 472 200.988V271.012C472 281.965 463.801 291.211 452.93 292.523L403.754 298.461C402.383 298.625 401.234 299.574 400.754 300.941C398.391 307.66 395.613 314.34 392.504 320.797C391.902 322.043 392.039 323.461 392.852 324.5L423.504 363.566C430.262 372.184 429.52 384.52 421.777 392.262L372.266 441.773C369.574 444.465 366.324 446.289 362.879 447.27L383.566 463.5C392.184 470.262 404.52 469.52 412.266 461.773L461.777 412.262C469.52 404.52 470.262 392.184 463.504 383.566L432.852 344.5C432.039 343.461 431.902 342.043 432.504 340.797C435.613 334.34 438.391 327.66 440.754 320.941C441.234 319.574 442.383 318.625 443.754 318.461L492.93 312.523C503.801 311.211 512 301.961 512 291.012V220.988C512 210.039 503.801 200.789 492.93 199.477Z" fill="#35198E"/>
<path d="M304.5 412.852C303.461 412.035 302.043 411.902 300.797 412.504C294.34 415.613 287.66 418.391 280.938 420.754C279.574 421.234 278.625 422.383 278.461 423.754L272.523 472.93C271.211 483.801 261.961 492 251.012 492H199.367L199.477 492.93C200.789 503.801 210.039 512 220.988 512H291.012C301.961 512 311.211 503.801 312.523 492.93L318.461 443.758C318.625 442.383 319.574 441.234 320.938 440.754C325.219 439.25 329.473 437.559 333.672 435.742L304.5 412.852Z" fill="#35198E"/>
<path d="M230.203 292.246V379.5C238.531 381.23 247.156 382.145 255.996 382.145H256.004C264.844 382.145 273.469 381.23 281.797 379.5V292.312L230.203 292.246Z" fill="#B0BEC5"/>
<path d="M282.48 176.676V220.879C282.48 222.328 281.887 223.719 280.836 224.719L259.16 245.438C257.07 247.438 253.77 247.399 251.727 245.356L231.078 224.707C230.078 223.711 229.52 222.356 229.52 220.946V176.672C229.52 172.286 224.719 169.602 220.969 171.875C200.637 184.207 187.32 206.946 188.41 232.703C189.922 268.293 219.414 296.907 255.035 297.403C292.84 297.93 323.652 267.442 323.652 229.758C323.652 205.215 310.582 183.731 291.027 171.871C287.277 169.602 282.48 172.289 282.48 176.676Z" fill="#B0BEC5"/>
<path d="M261.797 292.312V339.941C261.797 351.867 252.348 361.652 240.43 362.066C238.961 362.117 237.484 362.145 236.004 362.145H235.992C234.051 362.145 232.121 362.094 230.203 362.004V379.5C238.527 381.23 247.156 382.145 255.992 382.145H256.004C264.844 382.145 273.469 381.23 281.797 379.5V292.316H261.797V292.312Z" fill="#78909C"/>
<path d="M256 324.695C251.859 324.695 248.5 328.051 248.5 332.195V381.914C250.98 382.059 253.477 382.145 255.996 382.145H256.004C258.523 382.145 261.02 382.059 263.5 381.914V332.195C263.5 328.051 260.141 324.695 256 324.695Z" fill="#78909C"/>
<path d="M259.727 382.086C258.492 382.121 257.25 382.145 256.004 382.145H255.996C254.75 382.145 253.508 382.121 252.273 382.086C252.215 382.082 252.152 382.078 252.094 382.078C250.891 382.039 249.691 381.984 248.5 381.914V360.23C256.34 356.809 261.797 348.996 261.797 339.941V327.434C262.859 328.73 263.5 330.387 263.5 332.195V381.914C262.305 381.984 261.105 382.039 259.902 382.078C259.848 382.078 259.785 382.082 259.727 382.086Z" fill="#455A64"/>
<path d="M291.027 171.871C288.211 170.164 284.805 171.257 283.281 173.765C289.848 184.191 293.652 196.527 293.652 209.757C293.652 247.441 262.84 277.929 225.035 277.402C218.055 277.304 211.316 276.113 204.973 274.015C217.234 288.105 235.18 297.125 255.035 297.402C292.84 297.929 323.652 267.441 323.652 229.757C323.652 205.218 310.582 183.73 291.027 171.871Z" fill="#78909C"/>
<path d="M421.773 79.7385C429.52 87.4807 430.262 99.8166 423.5 108.434L392.852 147.5C392.039 148.539 391.902 149.957 392.504 151.203C395.613 157.66 398.391 164.34 400.754 171.063C401.234 172.426 402.383 173.375 403.754 173.539L435.32 177.352C434.41 175.285 433.48 173.231 432.504 171.203C431.902 169.957 432.035 168.539 432.852 167.5L463.5 128.434C470.262 119.817 469.52 107.481 461.773 99.7385L412.262 50.2268C405.742 43.7072 395.977 42.1721 387.91 45.8713L421.773 79.7385Z" fill="#35198E"/>
</svg>
